X:1000
T:McGovern's
R:reel
D:The Magic Square: Traditional Irish Music from Boston
Z:transcribed by Dave Marshall
M:C|
K:Ador
|: A3B GEDA | GABd egdg | eaaf gedB | cABA GEDG |
A3B GEDA | GABd egdg | eaaf gedB | GABG A4 :|
|: a3b aged | egdB A2G2 | egfa gedB | cABA GED2 |1
a3b aged | egdB A2GD | GABd gedB | GABG A4 :|2
A3B GEDA | GABd egdg | eaaf gedB | GABG A4 |
